X: 1814
T: Sâzın Gibi Sînem Dahi
C: Lem´i Atlı
O: Turkey
F: http://compmusic.upf.edu/node/140
N: rast--sarki--sofyan--sazin_gibi--lemi_atli
N: makam= rast
N: form= sarki
N: usul= sofyan = 4/4
M: 4/4
L: 1/16
K: C _1/4B ^f  
Q: 1/4=84
%%MIDI tuningsystem comma53
G4 G4 d6B2  | c3B A2c2 B6AG  | G2z2 G4 e6d2  | \
w:  ARANAĞME  |   |   | 
d3c d3/2=f/ed d4 z4  | 
w:   | 
z4 e4 =f6e2  | e3d c2e2 d3c B2d2  | c2B2 A2G2 dcBA B2c2  | 
w:   |   |   | 
B2AG A2{B}AG G4 G4  | G4 d6dc c3B  | \
w:   |  Sâ zın   | 
cBBA A8 z4  | A2c2 B6GB A4  | 
w:  *  *  gi *  bi   |  sî *  nem   | 
A2{B}AG G8 z4  | d3/2=f/ed d6cB c3B  | \
w:  *  *  da *  hi   |  bir  *  *  *  nağ  | 
d3/2=f/ed c2d2 c2{A}B2 c4  | 
w:  me *  ze *  nin  | 
c2d2 d3e dcBA G4  | G4 d6dc c3B  | cBBA A8 z4  | 
w:  *  *  dir   SAZ  |  Sâ zın   |  *  *  gi *  bi   | 
A2c2 B6GB A4  | A2{B}AG G8 z4  | d3/2=f/ed d6cB c3B  | \
w:  sî *  nem   |  *  *  da *  hi   |  bir  *  *  *  nağ  | 
d3/2=f/ed c2d2 c2{A}B2 c4  | 
w:  me *  ze *  nin  | 
c2d2 d4 GABc d4  | e3g =f6fe e3d  | d2{=f}ed dccB c4 z4  | 
w:  *  *  dir   SAZ  |  Vur  *  sî  |  *  *  ne *  me   | 
d4 e3d c2d2 c3B  | cBBA A8 z4  | d3/2=f/ed d8 dc2B  | 
w:  mız râ  |  bın_ *  i *  le   |  sî  | 
A2c2 B6AG G4  | d4 dcBA B2c2 B2AG  | \
w:   |  sî ne  *  *  *  *  se nin  | 
A2{B}AG G4 GABc d4  | 
w:  *  *  *  *  dir   SAZ  | 
e3g =f6fe e3d  | d2{=f}ed dccB c4 z4  | \
w:  Vur  *  sî  |  *  *  ne *  me   | 
d4 e3d c2d2 c3B  | 
w:  mız râ  | 
cBBA A8 z4  | d3/2=f/ed d8 dc2B  | A2c2 B6AG G4  | \
w:  bın_ *  i *  le   |  sî  |   | 
d4 dcBA B2c2 B2AG  | 
w:  sî ne  *  *  *  *  se nin  | 
A2{B}AG G4 GABc d4  | c3d d12  | g2f_7/8e d3c B^AB2 B4  | 
w:  *  *  *  *  dir   SAZ  |  Fer *  yâ  |  dı mı  *  tas  | 
B4 c4 d4 _7/8e2fg  | f_7/8eed d8 z4  | \
w:  vîr   |  e *  de *  cek   | 
a2g2 g2f4_7/8ed e2d2  | f2g2 _bagf _7/8e2f2 e4  | 
w:  gül   |  de he nin  | 
_7/8e2ed d4 defg a4  | g3a a8 a2g2  | \
w:  *  *  *  dir   SAZ  |  Fer *  yâ  | 
c'_bag {a}gff6 f4  | 
w:  dı *  mı  *  *  tas  | 
d4 _7/8e4 f4 g2ag  | f_7/8eed d8 z4  | \
w:  vîr   |  e *  de *  cek   | 
a2g2 g2=f4e2 e2d2  | ag=fe d2c4B/A/B c4  | 
w:  gül   |  de *  he *  nin  | 
c2d2 d4 GABc d4  | e3g =f6fe e3d  | d2{=f}ed dccB c4 z4  | 
w:  *  *  dir   SAZ  |  Vur  *  sî  |  *  *  ne *  me   | 
d4 e3d c2d2 c3B  | cBBA A8 z4  | d3/2=f/ed d8 dc2B  | 
w:  mız râ  |  bın_ *  i *  le   |  sî  | 
A2c2 B6AG G4  | d4 dcBA B2c2 B2AG  | \
w:   |  sî ne  *  *  *  *  se nin  | 
A2{B}AG G4 |
w:  *  *  *  *  dir    | 


